X: 11322
T: Eamon Coyne's
R: reel
M: 4/4
K: Gmajor
B2 dB GBdB|AD ~D2 cAFA|BddB GBdB|AD ~D2 G3A|
BD ~D2 dD ~D2|cD ~D2 AD ~D2|B2 dB GBdB|AD ~D2 G3A||
BGBd gfed|^cAce agfe|fgaf dfaf|eA ~A2 d2 ef|
gfed ef .a2|M:3/4
z g fd cA|M:C
B2 dB GBdB|AD ~D2 G3A||

